icon/gr/reactjs.svg

<svg xmlns="http://www.w3.org/2000/svg" viewBox="0 0 24 24" height="1em" width="1em">
  <g fill="#00D8FF" fill-rule="evenodd">
    <circle cx="11.996" cy="11.653" r="2.142"/>
    <path fill-rule="nonzero" d="M11.9957722,7.80914159 C14.763782,7.80914159 17.3932297,8.19939152 19.3922491,8.88758063 C21.6123871,9.6518808 22.9666335,10.7818833 22.9666335,11.652558 C22.9666335,12.5799965 21.5040812,13.7840336 19.1293161,14.5708627 C17.2387355,15.1972602 14.7092455,15.538679 11.9957722,15.538679 C9.14520032,15.538679 6.58717845,15.203913 4.71853163,14.565185 C3.54866968,14.1653247 2.58256656,13.6456709 1.92037292,13.0785821 C1.32532838,12.5689984 1.02491103,12.0630628 1.02491103,11.652558 C1.02491103,10.7789546 2.32734001,9.66464781 4.49959681,8.90729393 C6.49945246,8.21010004 9.19325759,7.80914159 11.9957722,7.80914159 L11.9957722,7.80914159 L11.9957722,7.80914159 L11.9957722,7.80914159 L11.9957722,7.80914159 M11.9957722,6.78423056 C9.08437994,6.78423056 6.2777499,7.20198239 4.1621939,7.93951199 C1.62214541,8.82509585 0,10.2129394 0,11.652558 C0,13.1394248 1.74140227,14.6307252 4.38703934,15.5350074 C6.37567236,16.2147483 9.04125041,16.56359 11.9957722,16.56359 C14.8115523,16.56359 17.4474553,16.2078081 19.4516644,15.5437626 C22.2020573,14.632477 23.9915445,13.1592927 23.9915445,11.652558 C23.9915445,10.2077356 22.3170688,8.81052922 19.7258695,7.91848823 C17.6128656,7.19105846 14.871718,6.78423056 11.9957722,6.78423056 L11.9957722,6.78423056 L11.9957722,6.78423056 L11.9957722,6.78423056 L11.9957722,6.78423056 M8.64782576,9.74318674 C10.0306294,7.34537922 11.6822995,5.26251432 13.2771145,3.87459857 C15.0483324,2.33318986 16.7037652,1.72455661 17.4580053,2.15950561 C18.2614273,2.62281187 18.5738182,4.49132292 18.0690455,6.94154209 C17.6671734,8.89223963 16.6992742,11.2540339 15.3437168,13.6046372 C13.9196524,16.0740185 12.3517605,18.1226845 10.8648902,19.4223695 C9.93407029,20.2360369 9.00127666,20.8133347 8.17921011,21.1036655 C7.44050831,21.3645543 6.85214323,21.3720417 6.49651234,21.1669615 C5.73974814,20.7305244 5.42512511,19.045619 5.85426462,16.7855049 C6.24932455,14.7048419 7.24772098,12.1710157 8.64782671,9.74318508 L8.64782576,9.74318674 L8.64782576,9.74318674 L8.64782576,9.74318674 L8.64782576,9.74318674 M7.759974,9.23116928 C6.30547459,11.7533204 5.26525979,14.3932772 4.84734364,16.5943171 C4.34554839,19.2370813 4.73740525,21.3355983 5.98449631,22.0548141 C7.2725788,22.7976074 9.43439148,22.0341158 11.5394159,20.1940284 C13.121755,18.8108935 14.7555742,16.6760844 16.2315707,14.1166508 C17.6382359,11.6774242 18.6468519,9.21627599 19.0728759,7.1483441 C19.6574939,4.31054745 19.2752706,2.02434609 17.9700071,1.27164481 C16.7184046,0.549880923 14.6715337,1.30242953 12.6042836,3.1014613 C10.9185312,4.56851694 9.19669947,6.73986025 7.75997496,9.23116762 L7.759974,9.23116928 L7.759974,9.23116928 L7.759974,9.23116928 L7.759974,9.23116928 M8.65102932,13.6102163 C7.26423584,11.2147037 6.28457878,8.74353725 5.87862056,6.66870559 C5.42774955,4.36439699 5.72720706,2.6262057 6.48072727,2.18999639 C7.28337846,1.72531755 9.05821175,2.38783711 10.9288592,4.04883669 C12.4181905,5.37119379 13.9809502,7.38921897 15.3404734,9.7376059 C16.7686644,12.2045881 17.7605533,14.5861039 18.1440168,16.5233658 C18.384086,17.7361541 18.4183857,18.8326057 18.2593637,19.6898062 C18.1164684,20.4600771 17.8291151,20.9735449 17.473831,21.1792215 C16.7177635,21.6169189 15.1008664,21.0480332 13.3571194,19.5474962 C11.7518336,18.1661133 10.0552117,16.0356933 8.65102599,13.6102105 L8.65102932,13.6102163 L8.65102932,13.6102163 L8.65102932,13.6102163 L8.65102932,13.6102163 M7.76403451,14.1237168 C9.2227685,16.6434222 10.9904487,18.863069 12.6886037,20.3243677 C14.727583,22.0789594 16.7414064,22.7874988 17.9873239,22.0662207 C19.2741476,21.3212689 19.6923336,19.0670565 19.1494202,16.3243517 C18.741335,14.2627011 17.7077401,11.7810493 16.2274688,9.22410641 C14.8166895,6.78718171 13.1881856,4.68425955 11.6093526,3.2824351 C9.4428116,1.3587035 7.27122101,0.548080175 5.96723274,1.30299809 C4.71682218,2.02685487 4.34655386,4.17606524 4.87278214,6.8655093 C5.30188762,9.05864543 6.32316039,11.6347867 7.76403118,14.1237111 L7.76403451,14.1237168 L7.76403451,14.1237168 L7.76403451,14.1237168 L7.76403451,14.1237168"/>
  </g>
</svg>

<svg xmlns="http://www.w3.org/2000/svg" width="24" height="24"><g fill="#00D8FF" fill-rule="evenodd"><circle cx="11.996" cy="11.653" r="2.142"/><path fill-rule="nonzero" d="M11.996 7.81c2.768 0 5.397.39 7.396 1.078 2.22.764 3.575 1.894 3.575 2.765 0 .927-1.463 2.131-3.838 2.918-1.89.626-4.42.968-7.133.968-2.85 0-5.409-.335-7.277-.974-1.17-.4-2.136-.92-2.799-1.486-.595-.51-.895-1.016-.895-1.426 0-.874 1.302-1.988 3.475-2.746 2-.697 4.693-1.098 7.496-1.098m0-1.025c-2.912 0-5.718.418-7.834 1.156C1.622 8.825 0 10.213 0 11.653c0 1.486 1.741 2.978 4.387 3.882 1.989.68 4.654 1.029 7.609 1.029 2.816 0 5.451-.356 7.456-1.02 2.75-.912 4.54-2.385 4.54-3.891 0-1.445-1.675-2.842-4.266-3.735-2.113-.727-4.854-1.134-7.73-1.134m-3.348 2.96c1.383-2.399 3.034-4.481 4.63-5.87 1.77-1.54 3.426-2.15 4.18-1.714.803.463 1.116 2.331.611 4.782-.402 1.95-1.37 4.312-2.725 6.663-1.424 2.469-2.992 4.518-4.48 5.817-.93.814-1.863 1.391-2.685 1.682-.738.26-1.327.268-1.682.063-.757-.436-1.072-2.121-.643-4.381.395-2.081 1.394-4.615 2.794-7.043m-.888-.512c-1.455 2.522-2.495 5.162-2.913 7.363-.501 2.643-.11 4.742 1.137 5.46 1.289.744 3.45-.02 5.555-1.86 1.583-1.383 3.217-3.518 4.693-6.077 1.406-2.44 2.415-4.9 2.84-6.969.585-2.837.203-5.124-1.102-5.876-1.252-.722-3.298.03-5.366 1.83C10.92 4.568 9.197 6.74 7.76 9.231m.891 4.378C7.264 11.215 6.285 8.744 5.879 6.67c-.451-2.305-.152-4.043.602-4.479.802-.465 2.577.198 4.448 1.859 1.49 1.322 3.052 3.34 4.411 5.689 1.429 2.467 2.42 4.848 2.804 6.785.24 1.213.274 2.31.115 3.167-.143.77-.43 1.284-.785 1.49-.756.437-2.373-.132-4.117-1.633-1.605-1.38-3.302-3.511-4.706-5.937m-.887.514c1.459 2.52 3.226 4.74 4.925 6.2 2.039 1.755 4.052 2.463 5.298 1.742 1.287-.745 1.705-2.999 1.162-5.742-.408-2.061-1.441-4.543-2.922-7.1-1.41-2.437-3.039-4.54-4.618-5.942C9.443 1.36 7.271.548 5.967 1.303c-1.25.724-1.62 2.873-1.094 5.563.429 2.193 1.45 4.769 2.891 7.258"/></g></svg>
